report_00007_2020-12-11T15:55:29.892Z/network-rtt/comparison/line/5_vs_6.svg

<svg width="640" height="500" xmlns="http://www.w3.org/2000/svg" xmlns:xlink="http://www.w3.org/1999/xlink"><path fill="#fff" d="M0 0h640v500H0z"/><defs><path id="d" stroke-width=".222" stroke="currentColor" d="M-1-1h2v2h-2z"/><path id="b" stroke-width=".222" stroke="currentColor" d="M0-1.33l-1.33 2h2.66z"/><path id="f" stroke-width=".222" stroke="currentColor" d="M0 1.33L1.265.411.782-1.067l-1.564-.009-.483 1.487z"/><use xlink:href="#b" id="c" stroke="currentColor" transform="rotate(180)"/><use xlink:href="#d" id="e" stroke="currentColor" transform="rotate(45)"/><circle id="a" stroke-width=".222" stroke="currentColor" cx="0" cy="0" r="1"/></defs><g fill="none" color="#000" stroke="currentColor"><path stroke="#000" d="M62.2 402.3h9m543.8 0h-9"/><text transform="translate(53.9 406.2)" stroke="none" fill="#000" font-family="Arial" font-size="12" text-anchor="end"><tspan>0.05</tspan></text></g><g fill="none" color="#000" stroke="currentColor"><path stroke="#000" d="M62.2 322.2h9m543.8 0h-9"/><text transform="translate(53.9 326.1)" stroke="none" fill="#000" font-family="Arial" font-size="12" text-anchor="end"><tspan>0.1</tspan></text></g><g fill="none" color="#000" stroke="currentColor"><path stroke="#000" d="M62.2 242h9m543.8 0h-9"/><text transform="translate(53.9 245.9)" stroke="none" fill="#000" font-family="Arial" font-size="12" text-anchor="end"><tspan>0.15</tspan></text></g><g fill="none" color="#000" stroke="currentColor"><path stroke="#000" d="M62.2 161.9h9m543.8 0h-9"/><text transform="translate(53.9 165.8)" stroke="none" fill="#000" font-family="Arial" font-size="12" text-anchor="end"><tspan>0.2</tspan></text></g><g fill="none" color="#000" stroke="currentColor"><path stroke="#000" d="M62.2 81.8h9m543.8 0h-9"/><text transform="translate(53.9 85.7)" stroke="none" fill="#000" font-family="Arial" font-size="12" text-anchor="end"><tspan>0.25</tspan></text></g><g fill="none" color="#000" stroke="currentColor"><path stroke="#000" d="M62.2 428v-9m0-400.9v9"/><text transform="translate(62.2 449.9)" stroke="none" fill="#000" font-family="Arial" font-size="12" text-anchor="middle"><tspan>0</tspan></text></g><g fill="none" color="#000" stroke="currentColor"><path stroke="#000" d="M118 428v-9m0-400.9v9"/><text transform="translate(118 449.9)" stroke="none" fill="#000" font-family="Arial" font-size="12" text-anchor="middle"><tspan>10</tspan></text></g><g fill="none" color="#000" stroke="currentColor"><path stroke="#000" d="M173.9 428v-9m0-400.9v9"/><text transform="translate(173.9 449.9)" stroke="none" fill="#000" font-family="Arial" font-size="12" text-anchor="middle"><tspan>20</tspan></text></g><g fill="none" color="#000" stroke="currentColor"><path stroke="#000" d="M229.7 428v-9m0-400.9v9"/><text transform="translate(229.7 449.9)" stroke="none" fill="#000" font-family="Arial" font-size="12" text-anchor="middle"><tspan>30</tspan></text></g><g fill="none" color="#000" stroke="currentColor"><path stroke="#000" d="M285.6 428v-9m0-400.9v9"/><text transform="translate(285.6 449.9)" stroke="none" fill="#000" font-family="Arial" font-size="12" text-anchor="middle"><tspan>40</tspan></text></g><g fill="none" color="#000" stroke="currentColor"><path stroke="#000" d="M341.4 428v-9m0-400.9v9"/><text transform="translate(341.4 449.9)" stroke="none" fill="#000" font-family="Arial" font-size="12" text-anchor="middle"><tspan>50</tspan></text></g><g fill="none" color="#000" stroke="currentColor"><path stroke="#000" d="M397.2 428v-9m0-400.9v9"/><text transform="translate(397.2 449.9)" stroke="none" fill="#000" font-family="Arial" font-size="12" text-anchor="middle"><tspan>60</tspan></text></g><g fill="none" color="#000" stroke="currentColor"><path stroke="#000" d="M453.1 428v-9m0-400.9v9"/><text transform="translate(453.1 449.9)" stroke="none" fill="#000" font-family="Arial" font-size="12" text-anchor="middle"><tspan>70</tspan></text></g><g fill="none" color="#000" stroke="currentColor"><path stroke="#000" d="M508.9 428v-9m0-400.9v9"/><text transform="translate(508.9 449.9)" stroke="none" fill="#000" font-family="Arial" font-size="12" text-anchor="middle"><tspan>80</tspan></text></g><g fill="none" color="#000" stroke="currentColor"><path stroke="#000" d="M564.7 428v-9m0-400.9v9"/><text transform="translate(564.7 449.9)" stroke="none" fill="#000" font-family="Arial" font-size="12" text-anchor="middle"><tspan>90</tspan></text></g><path stroke="#000" d="M62.2 18.1V428H615V18.1H62.2z" fill="none" color="#000"/><text transform="translate(437.8 467.9)" stroke="none" fill="#000" font-family="Arial" font-size="12" text-anchor="end" color="#000"><tspan>pages+cached+noexternal</tspan></text><path stroke="#9400D3" d="M446.1 464h42.2M62.2 379.7l5.6-37.3 5.6-105.2L79 381.6l5.5-22.2 5.6 4.3 5.6-188.3 5.6 243.1 5.6-15.7 5.6-42 5.5 59.3 5.6-66.3 5.6 26.9 5.6-11.7 5.6 5.4L146 364l5.5 37.5 5.6-22.7 5.6 18.1 5.6-51.6 5.6 19 5.6-23.4 5.5 33.4 5.6-26.6 5.6 29.9 5.6-11 5.6-11.1 5.6 27.6 5.5-5 5.6-11.7 5.6 8 5.6-12.9 5.6-96.5 5.6-17.8 5.6 139.1 5.5-11.4 5.6 27.1 5.6-33 5.6 17.9L280 374l5.6-92.8 5.5 83.9 5.6 4.4L302.3 26l5.6 374.1 5.6-22.6 5.6-10.6 5.5 18 5.6-22.8 5.6 18.3 5.6 15.2 5.6-19.4 5.6 8 5.5-16.2 5.6 9.3 5.6 20.7 5.6-163.3 5.6 137 5.6 1.9 5.5 16.7 5.6-12.2 5.6-1.1 5.6 5.6 5.6-8.5 5.6 11.4 5.5 14.1 5.6-108.2 5.6 95.7 5.6-20.8 5.6 10.2 5.6-7.7 5.6 11.6 5.5.4 5.6 6.3 5.6-10.3 5.6-42.3 5.6-75.6 5.6 140.4 5.5-43.5 5.6 45.6 5.6-30.6 5.6-187.6 5.6 148.8 5.6 67.4 5.5-27.8 5.6-4.2 5.6 4.2 5.6-9.3 5.6 2.4 5.6 6.9 5.5-8.2 5.6 15.2 5.6 9.5 5.6 6.1 5.6-184.1 5.6 128 5.5 39.5 5.6 13 5.6-25.5 5.6-3.3" fill="none" color="#000"/><text transform="translate(437.8 485.9)" stroke="none" fill="#000" font-family="Arial" font-size="12" text-anchor="end" color="#000"><tspan>pages+cached+noexternal+nofonts</tspan></text><path stroke="#009E73" d="M446.1 482h42.2M62.2 321.7l5.6 86.2 5.6-53.2 5.6 19.6 5.5-3.2 5.6 26.9 5.6-14.3 5.6-7.3 5.6-6.9 5.6 6.4 5.5-.3 5.6-9.8 5.6 32.7 5.6-26 5.6 22 5.6-14.3 5.5 13.8 5.6-22.6 5.6 20 5.6-6.5 5.6 13.3 5.6-14.1 5.5 10.1 5.6-10.3 5.6 10.6 5.6-14.5 5.6 20.7 5.6-16.6 5.5 5.1 5.6-9.5 5.6-28.7 5.6 17.8 5.6 14.9 5.6-14.7 5.6-21.5 5.5 34 5.6-6.3 5.6 31.9 5.6-38 5.6-16.6 5.6 21 5.5 17.9 5.6 7.2 5.6-46.3 5.6 34 5.6-6.9 5.6-22.8 5.5-12.3 5.6 31.7 5.6-18.4 5.6 34.6 5.6-3 5.6-14.1 5.5 1.4 5.6.3 5.6-8.6 5.6-2.6 5.6 7.1 5.6 5.1 5.5 12.8 5.6-16.3 5.6 26.7 5.6-36 5.6-18.6 5.6 30.9 5.5-12.3 5.6-9.6 5.6 23.4 5.6-3.9 5.6 1.5 5.6 19.2 5.6-20.2 5.5-5.9 5.6 34.9 5.6-30.3 5.6-3.2 5.6 1.8 5.6 29.6 5.5-31.5 5.6 11.7 5.6-2.1 5.6-21 5.6 40 5.6 1.2 5.5 2.2 5.6-6.7 5.6-96.4 5.6 94.6 5.6-16.5 5.6 23.1 5.5-30 5.6 11.1 5.6-19.4 5.6-3.2 5.6 3.5 5.6 17.9 5.5 24.4 5.6-5.4 5.6-24.9 5.6 19.7" fill="none" color="#000"/><g fill="none" color="#000" stroke="currentColor"><path stroke="#000" d="M62.2 18.1V428H615V18.1H62.2z"/></g></svg>

<?xml version="1.0" encoding="utf-8"  standalone="no"?>
<svg 
 width="640" height="500"
 viewBox="0 0 640 500"
 xmlns="http://www.w3.org/2000/svg"
 xmlns:xlink="http://www.w3.org/1999/xlink"
>

<title>Gnuplot</title>
<desc>Produced by GNUPLOT 5.4 patchlevel 0 </desc>

<g id="gnuplot_canvas">

<rect x="0" y="0" width="640" height="500" fill="#ffffff"/>
<defs>

	<circle id='gpDot' r='0.5' stroke-width='0.5' stroke='currentColor'/>
	<path id='gpPt0' stroke-width='0.222' stroke='currentColor' d='M-1,0 h2 M0,-1 v2'/>
	<path id='gpPt1' stroke-width='0.222' stroke='currentColor' d='M-1,-1 L1,1 M1,-1 L-1,1'/>
	<path id='gpPt2' stroke-width='0.222' stroke='currentColor' d='M-1,0 L1,0 M0,-1 L0,1 M-1,-1 L1,1 M-1,1 L1,-1'/>
	<rect id='gpPt3' stroke-width='0.222' stroke='currentColor' x='-1' y='-1' width='2' height='2'/>
	<rect id='gpPt4' stroke-width='0.222' stroke='currentColor' fill='currentColor' x='-1' y='-1' width='2' height='2'/>
	<circle id='gpPt5' stroke-width='0.222' stroke='currentColor' cx='0' cy='0' r='1'/>
	<use xlink:href='#gpPt5' id='gpPt6' fill='currentColor' stroke='none'/>
	<path id='gpPt7' stroke-width='0.222' stroke='currentColor' d='M0,-1.33 L-1.33,0.67 L1.33,0.67 z'/>
	<use xlink:href='#gpPt7' id='gpPt8' fill='currentColor' stroke='none'/>
	<use xlink:href='#gpPt7' id='gpPt9' stroke='currentColor' transform='rotate(180)'/>
	<use xlink:href='#gpPt9' id='gpPt10' fill='currentColor' stroke='none'/>
	<use xlink:href='#gpPt3' id='gpPt11' stroke='currentColor' transform='rotate(45)'/>
	<use xlink:href='#gpPt11' id='gpPt12' fill='currentColor' stroke='none'/>
	<path id='gpPt13' stroke-width='0.222' stroke='currentColor' d='M0,1.330 L1.265,0.411 L0.782,-1.067 L-0.782,-1.076 L-1.265,0.411 z'/>
	<use xlink:href='#gpPt13' id='gpPt14' fill='currentColor' stroke='none'/>
	<filter id='textbox' filterUnits='objectBoundingBox' x='0' y='0' height='1' width='1'>
	  <feFlood flood-color='#FFFFFF' flood-opacity='1' result='bgnd'/>
	  <feComposite in='SourceGraphic' in2='bgnd' operator='atop'/>
	</filter>
	<filter id='greybox' filterUnits='objectBoundingBox' x='0' y='0' height='1' width='1'>
	  <feFlood flood-color='lightgrey' flood-opacity='1' result='grey'/>
	  <feComposite in='SourceGraphic' in2='grey' operator='atop'/>
	</filter>
</defs>
<g fill="none" color="#FFFFFF" stroke="black" stroke-width="1.00" stroke-linecap="butt" stroke-linejoin="miter">
</g>
<g fill="none" color="black" stroke="currentColor" stroke-width="1.00" stroke-linecap="butt" stroke-linejoin="miter">
	<path stroke='black'  d='M62.2,402.3 L71.2,402.3 M615.0,402.3 L606.0,402.3  '/>	<g transform="translate(53.9,406.2)" stroke="none" fill="black" font-family="Arial" font-size="12.00"  text-anchor="end">
		<text><tspan font-family="Arial" > 0.05</tspan></text>
	</g>
</g>
<g fill="none" color="black" stroke="currentColor" stroke-width="1.00" stroke-linecap="butt" stroke-linejoin="miter">
	<path stroke='black'  d='M62.2,322.2 L71.2,322.2 M615.0,322.2 L606.0,322.2  '/>	<g transform="translate(53.9,326.1)" stroke="none" fill="black" font-family="Arial" font-size="12.00"  text-anchor="end">
		<text><tspan font-family="Arial" > 0.1</tspan></text>
	</g>
</g>
<g fill="none" color="black" stroke="currentColor" stroke-width="1.00" stroke-linecap="butt" stroke-linejoin="miter">
	<path stroke='black'  d='M62.2,242.0 L71.2,242.0 M615.0,242.0 L606.0,242.0  '/>	<g transform="translate(53.9,245.9)" stroke="none" fill="black" font-family="Arial" font-size="12.00"  text-anchor="end">
		<text><tspan font-family="Arial" > 0.15</tspan></text>
	</g>
</g>
<g fill="none" color="black" stroke="currentColor" stroke-width="1.00" stroke-linecap="butt" stroke-linejoin="miter">
	<path stroke='black'  d='M62.2,161.9 L71.2,161.9 M615.0,161.9 L606.0,161.9  '/>	<g transform="translate(53.9,165.8)" stroke="none" fill="black" font-family="Arial" font-size="12.00"  text-anchor="end">
		<text><tspan font-family="Arial" > 0.2</tspan></text>
	</g>
</g>
<g fill="none" color="black" stroke="currentColor" stroke-width="1.00" stroke-linecap="butt" stroke-linejoin="miter">
	<path stroke='black'  d='M62.2,81.8 L71.2,81.8 M615.0,81.8 L606.0,81.8  '/>	<g transform="translate(53.9,85.7)" stroke="none" fill="black" font-family="Arial" font-size="12.00"  text-anchor="end">
		<text><tspan font-family="Arial" > 0.25</tspan></text>
	</g>
</g>
<g fill="none" color="black" stroke="currentColor" stroke-width="1.00" stroke-linecap="butt" stroke-linejoin="miter">
	<path stroke='black'  d='M62.2,428.0 L62.2,419.0 M62.2,18.1 L62.2,27.1  '/>	<g transform="translate(62.2,449.9)" stroke="none" fill="black" font-family="Arial" font-size="12.00"  text-anchor="middle">
		<text><tspan font-family="Arial" > 0</tspan></text>
	</g>
</g>
<g fill="none" color="black" stroke="currentColor" stroke-width="1.00" stroke-linecap="butt" stroke-linejoin="miter">
	<path stroke='black'  d='M118.0,428.0 L118.0,419.0 M118.0,18.1 L118.0,27.1  '/>	<g transform="translate(118.0,449.9)" stroke="none" fill="black" font-family="Arial" font-size="12.00"  text-anchor="middle">
		<text><tspan font-family="Arial" > 10</tspan></text>
	</g>
</g>
<g fill="none" color="black" stroke="currentColor" stroke-width="1.00" stroke-linecap="butt" stroke-linejoin="miter">
	<path stroke='black'  d='M173.9,428.0 L173.9,419.0 M173.9,18.1 L173.9,27.1  '/>	<g transform="translate(173.9,449.9)" stroke="none" fill="black" font-family="Arial" font-size="12.00"  text-anchor="middle">
		<text><tspan font-family="Arial" > 20</tspan></text>
	</g>
</g>
<g fill="none" color="black" stroke="currentColor" stroke-width="1.00" stroke-linecap="butt" stroke-linejoin="miter">
	<path stroke='black'  d='M229.7,428.0 L229.7,419.0 M229.7,18.1 L229.7,27.1  '/>	<g transform="translate(229.7,449.9)" stroke="none" fill="black" font-family="Arial" font-size="12.00"  text-anchor="middle">
		<text><tspan font-family="Arial" > 30</tspan></text>
	</g>
</g>
<g fill="none" color="black" stroke="currentColor" stroke-width="1.00" stroke-linecap="butt" stroke-linejoin="miter">
	<path stroke='black'  d='M285.6,428.0 L285.6,419.0 M285.6,18.1 L285.6,27.1  '/>	<g transform="translate(285.6,449.9)" stroke="none" fill="black" font-family="Arial" font-size="12.00"  text-anchor="middle">
		<text><tspan font-family="Arial" > 40</tspan></text>
	</g>
</g>
<g fill="none" color="black" stroke="currentColor" stroke-width="1.00" stroke-linecap="butt" stroke-linejoin="miter">
	<path stroke='black'  d='M341.4,428.0 L341.4,419.0 M341.4,18.1 L341.4,27.1  '/>	<g transform="translate(341.4,449.9)" stroke="none" fill="black" font-family="Arial" font-size="12.00"  text-anchor="middle">
		<text><tspan font-family="Arial" > 50</tspan></text>
	</g>
</g>
<g fill="none" color="black" stroke="currentColor" stroke-width="1.00" stroke-linecap="butt" stroke-linejoin="miter">
	<path stroke='black'  d='M397.2,428.0 L397.2,419.0 M397.2,18.1 L397.2,27.1  '/>	<g transform="translate(397.2,449.9)" stroke="none" fill="black" font-family="Arial" font-size="12.00"  text-anchor="middle">
		<text><tspan font-family="Arial" > 60</tspan></text>
	</g>
</g>
<g fill="none" color="black" stroke="currentColor" stroke-width="1.00" stroke-linecap="butt" stroke-linejoin="miter">
	<path stroke='black'  d='M453.1,428.0 L453.1,419.0 M453.1,18.1 L453.1,27.1  '/>	<g transform="translate(453.1,449.9)" stroke="none" fill="black" font-family="Arial" font-size="12.00"  text-anchor="middle">
		<text><tspan font-family="Arial" > 70</tspan></text>
	</g>
</g>
<g fill="none" color="black" stroke="currentColor" stroke-width="1.00" stroke-linecap="butt" stroke-linejoin="miter">
	<path stroke='black'  d='M508.9,428.0 L508.9,419.0 M508.9,18.1 L508.9,27.1  '/>	<g transform="translate(508.9,449.9)" stroke="none" fill="black" font-family="Arial" font-size="12.00"  text-anchor="middle">
		<text><tspan font-family="Arial" > 80</tspan></text>
	</g>
</g>
<g fill="none" color="black" stroke="currentColor" stroke-width="1.00" stroke-linecap="butt" stroke-linejoin="miter">
	<path stroke='black'  d='M564.7,428.0 L564.7,419.0 M564.7,18.1 L564.7,27.1  '/>	<g transform="translate(564.7,449.9)" stroke="none" fill="black" font-family="Arial" font-size="12.00"  text-anchor="middle">
		<text><tspan font-family="Arial" > 90</tspan></text>
	</g>
</g>
<g fill="none" color="black" stroke="currentColor" stroke-width="1.00" stroke-linecap="butt" stroke-linejoin="miter">
</g>
<g fill="none" color="black" stroke="currentColor" stroke-width="1.00" stroke-linecap="butt" stroke-linejoin="miter">
	<path stroke='black'  d='M62.2,18.1 L62.2,428.0 L615.0,428.0 L615.0,18.1 L62.2,18.1 Z  '/></g>
<g fill="none" color="black" stroke="currentColor" stroke-width="1.00" stroke-linecap="butt" stroke-linejoin="miter">
</g>
	<g id="gnuplot_plot_1" ><title>pages+cached+noexternal</title>
<g fill="none" color="black" stroke="currentColor" stroke-width="1.00" stroke-linecap="butt" stroke-linejoin="miter">
	<g transform="translate(437.8,467.9)" stroke="none" fill="black" font-family="Arial" font-size="12.00"  text-anchor="end">
		<text><tspan font-family="Arial" >pages+cached+noexternal</tspan></text>
	</g>
</g>
<g fill="none" color="black" stroke="currentColor" stroke-width="1.00" stroke-linecap="butt" stroke-linejoin="miter">
	<path stroke='rgb(148,   0, 211)'  d='M446.1,464.0 L488.3,464.0 M62.2,379.7 L67.8,342.4 L73.4,237.2 L79.0,381.6 L84.5,359.4 L90.1,363.7
		L95.7,175.4 L101.3,418.5 L106.9,402.8 L112.5,360.8 L118.0,420.1 L123.6,353.8 L129.2,380.7 L134.8,369.0
		L140.4,374.4 L146.0,364.0 L151.5,401.5 L157.1,378.8 L162.7,396.9 L168.3,345.3 L173.9,364.3 L179.5,340.9
		L185.0,374.3 L190.6,347.7 L196.2,377.6 L201.8,366.6 L207.4,355.5 L213.0,383.1 L218.5,378.1 L224.1,366.4
		L229.7,374.4 L235.3,361.5 L240.9,265.0 L246.5,247.2 L252.1,386.3 L257.6,374.9 L263.2,402.0 L268.8,369.0
		L274.4,386.9 L280.0,374.0 L285.6,281.2 L291.1,365.1 L296.7,369.5 L302.3,26.0 L307.9,400.1 L313.5,377.5
		L319.1,366.9 L324.6,384.9 L330.2,362.1 L335.8,380.4 L341.4,395.6 L347.0,376.2 L352.6,384.2 L358.1,368.0
		L363.7,377.3 L369.3,398.0 L374.9,234.7 L380.5,371.7 L386.1,373.6 L391.6,390.3 L397.2,378.1 L402.8,377.0
		L408.4,382.6 L414.0,374.1 L419.6,385.5 L425.1,399.6 L430.7,291.4 L436.3,387.1 L441.9,366.3 L447.5,376.5
		L453.1,368.8 L458.7,380.4 L464.2,380.8 L469.8,387.1 L475.4,376.8 L481.0,334.5 L486.6,258.9 L492.2,399.3
		L497.7,355.8 L503.3,401.4 L508.9,370.8 L514.5,183.2 L520.1,332.0 L525.7,399.4 L531.2,371.6 L536.8,367.4
		L542.4,371.6 L548.0,362.3 L553.6,364.7 L559.2,371.6 L564.7,363.4 L570.3,378.6 L575.9,388.1 L581.5,394.2
		L587.1,210.1 L592.7,338.1 L598.2,377.6 L603.8,390.6 L609.4,365.1 L615.0,361.8  '/></g>
	</g>
	<g id="gnuplot_plot_2" ><title>pages+cached+noexternal+nofonts</title>
<g fill="none" color="black" stroke="currentColor" stroke-width="1.00" stroke-linecap="butt" stroke-linejoin="miter">
	<g transform="translate(437.8,485.9)" stroke="none" fill="black" font-family="Arial" font-size="12.00"  text-anchor="end">
		<text><tspan font-family="Arial" >pages+cached+noexternal+nofonts</tspan></text>
	</g>
</g>
<g fill="none" color="black" stroke="currentColor" stroke-width="1.00" stroke-linecap="butt" stroke-linejoin="miter">
	<path stroke='rgb(  0, 158, 115)'  d='M446.1,482.0 L488.3,482.0 M62.2,321.7 L67.8,407.9 L73.4,354.7 L79.0,374.3 L84.5,371.1 L90.1,398.0
		L95.7,383.7 L101.3,376.4 L106.9,369.5 L112.5,375.9 L118.0,375.6 L123.6,365.8 L129.2,398.5 L134.8,372.5
		L140.4,394.5 L146.0,380.2 L151.5,394.0 L157.1,371.4 L162.7,391.4 L168.3,384.9 L173.9,398.2 L179.5,384.1
		L185.0,394.2 L190.6,383.9 L196.2,394.5 L201.8,380.0 L207.4,400.7 L213.0,384.1 L218.5,389.2 L224.1,379.7
		L229.7,351.0 L235.3,368.8 L240.9,383.7 L246.5,369.0 L252.1,347.5 L257.6,381.5 L263.2,375.2 L268.8,407.1
		L274.4,369.1 L280.0,352.5 L285.6,373.5 L291.1,391.4 L296.7,398.6 L302.3,352.3 L307.9,386.3 L313.5,379.4
		L319.1,356.6 L324.6,344.3 L330.2,376.0 L335.8,357.6 L341.4,392.2 L347.0,389.2 L352.6,375.1 L358.1,376.5
		L363.7,376.8 L369.3,368.2 L374.9,365.6 L380.5,372.7 L386.1,377.8 L391.6,390.6 L397.2,374.3 L402.8,401.0
		L408.4,365.0 L414.0,346.4 L419.6,377.3 L425.1,365.0 L430.7,355.4 L436.3,378.8 L441.9,374.9 L447.5,376.4
		L453.1,395.6 L458.7,375.4 L464.2,369.5 L469.8,404.4 L475.4,374.1 L481.0,370.9 L486.6,372.7 L492.2,402.3
		L497.7,370.8 L503.3,382.5 L508.9,380.4 L514.5,359.4 L520.1,399.4 L525.7,400.6 L531.2,402.8 L536.8,396.1
		L542.4,299.7 L548.0,394.3 L553.6,377.8 L559.2,400.9 L564.7,370.9 L570.3,382.0 L575.9,362.6 L581.5,359.4
		L587.1,362.9 L592.7,380.8 L598.2,405.2 L603.8,399.8 L609.4,374.9 L615.0,394.6  '/></g>
	</g>
<g fill="none" color="#FFFFFF" stroke="rgb(  0, 158, 115)" stroke-width="2.00" stroke-linecap="butt" stroke-linejoin="miter">
</g>
<g fill="none" color="black" stroke="currentColor" stroke-width="2.00" stroke-linecap="butt" stroke-linejoin="miter">
</g>
<g fill="none" color="black" stroke="black" stroke-width="1.00" stroke-linecap="butt" stroke-linejoin="miter">
</g>
<g fill="none" color="black" stroke="currentColor" stroke-width="1.00" stroke-linecap="butt" stroke-linejoin="miter">
	<path stroke='black'  d='M62.2,18.1 L62.2,428.0 L615.0,428.0 L615.0,18.1 L62.2,18.1 Z  '/></g>
<g fill="none" color="black" stroke="currentColor" stroke-width="1.00" stroke-linecap="butt" stroke-linejoin="miter">
</g>
</g>
</svg>
